X:139
T:Knocking and Scratching
M:C |
L:1/8
B:Thompson's Compleat Collection of 200 Favourite Country Dances, vol. 2 (London, 1765)
Z:Transcribed and edited by Flynn Titford-Mock, 2007
Z:abc's:AK/Fiddler's Companion
K:Eb
E2B2 (eB)(cG) | (AF)(GA) D2B,2 | (Bc)(de) (fg)(ab) | gdec BA G2 | ABcd ecBG | AGFE {E}D2d2 |
ecBG cAGF | BGAF E4 :: B2e2 bgaf | gedc B2 AG | ABcd efga | (g/a/b)ag {g}f3g |
b(g/a/b)g a(f/g/a)f | g(e/f/g)e B3d | e(c/d/e)c B(G/A/B)G | AFBG E4 :: B,EGE B,EGE | cAGF EDCB, |
Bege Bege | bgaf edcB | bg2b af2a | gdec B3d | e B2G cA2 F | (3edc BG E4 :|

